Papirus-nordic/48x48/places/folder-nordic-publicshare-open.svg

<svg xmlns="http://www.w3.org/2000/svg" width="48" height="48" version="1"><rect width="40" height="26" x="4" y="17" rx="2" ry="2" opacity=".2"/><path d="M4 34c0 1.108.892 2 2 2h36c1.108 0 2-.892 2-2V12c0-1.108-.892-2-2-2H22V8c0-1.108-.892-2-2-2H6c-1.108 0-2 .892-2 2" fill="#6c9b9a"/><rect width="40" height="22" x="4" y="19" rx="2" ry="2" opacity=".2"/><rect width="36" height="16" x="6" y="13" rx="2" ry="2" fill="#e4e4e4"/><rect width="40" height="22" x="4" y="20" rx="2" ry="2" fill="#82abaa"/><path d="M6 6c-1.108 0-2 .892-2 2v1c0-1.108.892-2 2-2h14c1.108 0 2 .892 2 2V8c0-1.108-.892-2-2-2zm16 4v1h20c1.108 0 2 .892 2 2v-1c0-1.108-.892-2-2-2z" opacity=".1" fill="#fff"/><path d="M20.545 27.452a.57.57 0 0 0-.135.052c-.43.227-.54.936-.246 1.592.237.528.657.854 1.039.844.287 1.753 1.43 3.06 2.79 3.06h.012c1.361 0 2.504-1.307 2.791-3.06.381.01.802-.316 1.039-.844.294-.656.184-1.365-.246-1.592a.588.588 0 0 0-.135-.052C27.399 25.535 25.876 24 24 24c-1.875 0-3.4 1.535-3.455 3.452zM26.394 33c-.289.701-1.274 1.227-2.449 1.227-1.17 0-2.146-.519-2.44-1.215-2.468.258-4.267.89-4.483 1.637-.003.007.002.016 0 .023-.007.027-.007.051-.01.078-.001.013-.012.021-.012.034v1.859a.355.355 0 0 0 .351.357H30.65c.194 0 .35-.16.35-.357v-1.872c-.002-.043-.021-.08-.033-.123-.221-.756-2.059-1.396-4.572-1.648z" fill="#4e6766"/></svg>

<svg xmlns="http://www.w3.org/2000/svg" width="48" height="48" version="1">
 <rect style="opacity:0.2" width="40" height="26" x="4" y="17" rx="2" ry="2"/>
 <path style="fill:#6c9b9a" d="M 4,34 C 4,35.108 4.892,36 6,36 H 42 C 43.108,36 44,35.108 44,34 V 12 C 44,10.892 43.108,10 42,10 H 22 V 8 C 22,6.892 21.108,6 20,6 H 6 C 4.892,6 4,6.892 4,8"/>
 <rect style="opacity:0.2" width="40" height="22" x="4" y="19" rx="2" ry="2"/>
 <rect style="fill:#e4e4e4" width="36" height="16" x="6" y="13" rx="2" ry="2"/>
 <rect style="fill:#82abaa" width="40" height="22" x="4" y="20" rx="2" ry="2"/>
 <path style="opacity:0.1;fill:#ffffff" d="M 6,6 C 4.892,6 4,6.892 4,8 V 9 C 4,7.892 4.892,7 6,7 H 20 C 21.108,7 22,7.892 22,9 V 8 C 22,6.892 21.108,6 20,6 Z M 22,10 V 11 H 42 C 43.108,11 44,11.892 44,13 V 12 C 44,10.892 43.108,10 42,10 Z"/>
 <path style="fill:#4e6766" d="M 20.545,27.452 C 20.499,27.463 20.453,27.481 20.41,27.504 19.98,27.731 19.87,28.44 20.164,29.096 20.401,29.624 20.821,29.95 21.203,29.94 21.49,31.693 22.633,33 23.993,33 H 24.005 C 25.366,33 26.509,31.693 26.796,29.94 27.177,29.95 27.598,29.624 27.835,29.096 28.129,28.44 28.019,27.731 27.589,27.504 27.545,27.481 27.5,27.463 27.454,27.452 27.399,25.535 25.876,24 24,24 22.125,24 20.6,25.535 20.545,27.452 Z M 26.394,33 C 26.105,33.701 25.12,34.227 23.945,34.227 22.775,34.227 21.799,33.708 21.505,33.012 19.037,33.27 17.238,33.902 17.022,34.649 17.019,34.656 17.024,34.665 17.022,34.672 17.015,34.699 17.015,34.723 17.012,34.75 17.011,34.763 17,34.771 17,34.784 V 34.793 36.643 C 17.001,36.84 17.157,37 17.351,37 H 30.65 C 30.844,37 31,36.84 31,36.643 V 34.793 34.771 C 30.998,34.728 30.979,34.691 30.967,34.648 30.746,33.892 28.908,33.252 26.395,33 Z"/>
</svg>
